NotoEmoji/emoji_u1f3ab.svg

<svg enable-background="new 0 0 128 128" viewBox="0 0 128 128" xmlns="http://www.w3.org/2000/svg"><path d="m3.16 33.47v65.27c0 1.11.9 2.02 2.02 2.02h115.96c1.11 0 2.02-.9 2.02-2.02v-65.27c0-1.11-.9-2.02-2.02-2.02h-115.96c-1.12 0-2.02.91-2.02 2.02zm83.01 62.81c-5.57 3.57-11.49-2.34-7.91-7.91.24-.38.56-.7.94-.94 5.57-3.57 11.49 2.34 7.91 7.91-.25.38-.57.7-.94.94zm0-16.83c-5.57 3.57-11.49-2.34-7.91-7.91.24-.38.56-.7.94-.94 5.57-3.57 11.49 2.34 7.91 7.91-.25.37-.57.7-.94.94zm0-17.83c-5.57 3.57-11.49-2.34-7.91-7.91.24-.38.56-.7.94-.94 5.57-3.57 11.49 2.34 7.91 7.91-.25.37-.57.7-.94.94zm0-16.83c-5.57 3.57-11.49-2.34-7.91-7.91.24-.38.56-.7.94-.94 5.57-3.57 11.49 2.34 7.91 7.91-.25.37-.57.7-.94.94z" fill="#a65f3e"/><path d="m3.16 30.47v65.27c0 1.11.9 2.02 2.02 2.02h115.96c1.11 0 2.02-.9 2.02-2.02v-65.27c0-1.11-.9-2.02-2.02-2.02h-115.96c-1.12 0-2.02.91-2.02 2.02zm83.01 62.81c-5.57 3.57-11.49-2.34-7.91-7.91.24-.38.56-.7.94-.94 5.57-3.57 11.49 2.34 7.91 7.91-.25.38-.57.7-.94.94zm0-16.83c-5.57 3.57-11.49-2.34-7.91-7.91.24-.38.56-.7.94-.94 5.57-3.57 11.49 2.34 7.91 7.91-.25.37-.57.7-.94.94zm0-17.83c-5.57 3.57-11.49-2.34-7.91-7.91.24-.38.56-.7.94-.94 5.57-3.57 11.49 2.34 7.91 7.91-.25.37-.57.7-.94.94zm0-16.83c-5.57 3.57-11.49-2.34-7.91-7.91.24-.38.56-.7.94-.94 5.57-3.57 11.49 2.34 7.91 7.91-.25.37-.57.7-.94.94z" fill="#ffd54f"/><g style="opacity:.8;fill:none;stroke:#4e342e;stroke-width:8;stroke-linecap:round;stroke-miterlimit:10"><path d="m15.06 51.03h32.56"/><path d="m15.06 66.51h23.07"/><path d="m54.09 66.51h4.84"/></g><g fill="#6d4c41" opacity=".5"><path d="m13.56 80.46h3v9.3h-3z"/><path d="m38.71 80.46h3v9.3h-3z"/><path d="m44.15 80.46h3v9.3h-3z"/><path d="m19.47 80.46h6v9.3h-6z"/><path d="m49.66 80.46h7v9.3h-7z"/><path d="m28.14 80.46h8v9.3h-8z"/></g><path d="m122.04 28.45h-117.77c-.62 0-1.11.5-1.11 1.11v9.96h74.45c-.72-1.67-.64-3.77.76-5.82.19-.28.44-.53.72-.72 4.42-2.93 9.1.17 9.1 4.36 0 .77-.16 1.51-.45 2.17h35.41v-9.96c.01-.6-.49-1.1-1.11-1.1z" fill="#e2a610"/><path d="m97.81 48.68h18.23v16.69h-18.23z" fill="#6d4c41" opacity=".5"/><g fill="none" stroke="#4e342e" stroke-linecap="round" stroke-miterlimit="10" stroke-width="3"><path d="m98.98 74.14h9.07" opacity=".8"/><path d="m98.98 80.46h14.28" opacity=".8"/></g></svg>

<?xml version="1.0" encoding="utf-8"?>
<!-- Generator: Adobe Illustrator 25.2.3, SVG Export Plug-In . SVG Version: 6.00 Build 0)  -->
<svg version="1.1" id="Layer_3" xmlns="http://www.w3.org/2000/svg" xmlns:xlink="http://www.w3.org/1999/xlink" x="0px" y="0px"
	 viewBox="0 0 128 128" style="enable-background:new 0 0 128 128;" xml:space="preserve">
<g>
	<path style="fill:#A65F3E;" d="M3.16,33.47v65.27c0,1.11,0.9,2.02,2.02,2.02h115.96c1.11,0,2.02-0.9,2.02-2.02V33.47
		c0-1.11-0.9-2.02-2.02-2.02H5.18C4.06,31.45,3.16,32.36,3.16,33.47z M86.17,96.28c-5.57,3.57-11.49-2.34-7.91-7.91
		c0.24-0.38,0.56-0.7,0.94-0.94c5.57-3.57,11.49,2.34,7.91,7.91C86.86,95.72,86.54,96.04,86.17,96.28z M86.17,79.45
		c-5.57,3.57-11.49-2.34-7.91-7.91c0.24-0.38,0.56-0.7,0.94-0.94c5.57-3.57,11.49,2.34,7.91,7.91
		C86.86,78.88,86.54,79.21,86.17,79.45z M86.17,61.62c-5.57,3.57-11.49-2.34-7.91-7.91c0.24-0.38,0.56-0.7,0.94-0.94
		c5.57-3.57,11.49,2.34,7.91,7.91C86.86,61.05,86.54,61.38,86.17,61.62z M86.17,44.79c-5.57,3.57-11.49-2.34-7.91-7.91
		c0.24-0.38,0.56-0.7,0.94-0.94c5.57-3.57,11.49,2.34,7.91,7.91C86.86,44.22,86.54,44.55,86.17,44.79z"/>
	<path style="fill:#FFD54F;" d="M3.16,30.47v65.27c0,1.11,0.9,2.02,2.02,2.02h115.96c1.11,0,2.02-0.9,2.02-2.02V30.47
		c0-1.11-0.9-2.02-2.02-2.02H5.18C4.06,28.45,3.16,29.36,3.16,30.47z M86.17,93.28c-5.57,3.57-11.49-2.34-7.91-7.91
		c0.24-0.38,0.56-0.7,0.94-0.94c5.57-3.57,11.49,2.34,7.91,7.91C86.86,92.72,86.54,93.04,86.17,93.28z M86.17,76.45
		c-5.57,3.57-11.49-2.34-7.91-7.91c0.24-0.38,0.56-0.7,0.94-0.94c5.57-3.57,11.49,2.34,7.91,7.91
		C86.86,75.88,86.54,76.21,86.17,76.45z M86.17,58.62c-5.57,3.57-11.49-2.34-7.91-7.91c0.24-0.38,0.56-0.7,0.94-0.94
		c5.57-3.57,11.49,2.34,7.91,7.91C86.86,58.05,86.54,58.38,86.17,58.62z M86.17,41.79c-5.57,3.57-11.49-2.34-7.91-7.91
		c0.24-0.38,0.56-0.7,0.94-0.94c5.57-3.57,11.49,2.34,7.91,7.91C86.86,41.22,86.54,41.55,86.17,41.79z"/>
	<g style="opacity:0.8;">
		
			<line style="fill:none;stroke:#4E342E;stroke-width:8;stroke-linecap:round;stroke-miterlimit:10;" x1="15.06" y1="51.03" x2="47.62" y2="51.03"/>
		
			<line style="fill:none;stroke:#4E342E;stroke-width:8;stroke-linecap:round;stroke-miterlimit:10;" x1="15.06" y1="66.51" x2="38.13" y2="66.51"/>
		
			<line style="fill:none;stroke:#4E342E;stroke-width:8;stroke-linecap:round;stroke-miterlimit:10;" x1="54.09" y1="66.51" x2="58.93" y2="66.51"/>
	</g>
	<g style="opacity:0.5;">
		<g>
			<rect x="13.56" y="80.46" style="fill:#6D4C41;" width="3" height="9.3"/>
		</g>
		<g>
			<rect x="38.71" y="80.46" style="fill:#6D4C41;" width="3" height="9.3"/>
		</g>
		<g>
			<rect x="44.15" y="80.46" style="fill:#6D4C41;" width="3" height="9.3"/>
		</g>
		<g>
			<rect x="19.47" y="80.46" style="fill:#6D4C41;" width="6" height="9.3"/>
		</g>
		<g>
			<rect x="49.66" y="80.46" style="fill:#6D4C41;" width="7" height="9.3"/>
		</g>
		<g>
			<rect x="28.14" y="80.46" style="fill:#6D4C41;" width="8" height="9.3"/>
		</g>
	</g>
	<path style="fill:#E2A610;" d="M122.04,28.45H4.27c-0.62,0-1.11,0.5-1.11,1.11v9.96h74.45c-0.72-1.67-0.64-3.77,0.76-5.82
		c0.19-0.28,0.44-0.53,0.72-0.72c4.42-2.93,9.1,0.17,9.1,4.36c0,0.77-0.16,1.51-0.45,2.17h35.41v-9.96
		C123.16,28.95,122.66,28.45,122.04,28.45z"/>
	<rect x="97.81" y="48.68" style="opacity:0.5;fill:#6D4C41;" width="18.23" height="16.69"/>
	
		<line style="opacity:0.8;fill:none;stroke:#4E342E;stroke-width:3;stroke-linecap:round;stroke-miterlimit:10;" x1="98.98" y1="74.14" x2="108.05" y2="74.14"/>
	
		<line style="opacity:0.8;fill:none;stroke:#4E342E;stroke-width:3;stroke-linecap:round;stroke-miterlimit:10;" x1="98.98" y1="80.46" x2="113.26" y2="80.46"/>
</g>
</svg>
